X:1
T:Gebor'n ist uns Emmanuel
T:Gebor'n ist uns Emmanuel
T:Michael Prætorius (1571-1621)
%%score [ 1 2 3 4 ]
L:1/8
Q:1/4=60
M:4/4
K:F
V:1 treble nm="Soprano"
V:2 treble nm="Alto"
V:3 treble-8 nm="Tenor"
V:4 bass nm="Bass"
V:1
 F4 c c c c | d2 B2 c4 | f4 d4 | c8 | f e d c d d c2 | A4 B4 | c8 | F2 G2 (A>Bc) A | %8
w: Ge- bor'n ist uns Em-|ma- nu- el,|Christ der|Herr,|wie wer- kün- det Ga- bri- el,|Christ der|Herr,|Christ der Herr, _ _ der|
 B G F E (F>GA) A | B2 G2 F2 E2 | F8 | z8 | z8 | c6 =B2 | c8 | z8 | c4 d4 | G8 | F2 G2 (A>Bc) A | %19
w: un- ser Hei- land ist, _ _ der|un- ser Hei- land|ist.|||Christ der|Herr,||Christ der|Herr,|Christ der Herr, _ _ der|
 B G F E (F>GA) A | B2 G2 F2 E2 | F8 | z2 F2 c c c c | d2 B2 c4 | f4 d4 | c8 | f e d c d d c2 | %27
w: un- ser Hei- land ist, _ _ der|un- ser Hei- land|ist.|Es leuch- tet uns ein|hel- ler Schein,|Christ der|Herr,|von Ma- rie, der Jung- frau rein,|
 A4 B4 | c8 | F2 G2 (A>Bc) A | B G F E (F>GA) A | B2 G2 F2 E2 | F8 |] %33
w: Christ der|Herr,|Christ der Herr, _ _ der|un- ser Hei- land ist, _ _ der|un.- ser Hei- land|ist.|
V:2
 z2 F2 F F E F | B,2 D2 (CD E2) | A4 G4 | G8 | A G F E F G C2 | F6 F2 | E8 | D2 E2 F3 F | %8
w: Ge- bor'n ist uns Em-|ma- nu- el, _ _|Christ der|Herr,|wie wer- kün- det Ga- bri- el,|Christ der|Herr,|Christ der Herr, der|
 F E (DC/B,/C) C C F | F2 E2 (DC/B,/C) C | C8 | z8 | z8 | A4 G4 | E8 | z8 | F6 D2 | E8 | %18
w: un- ser Hei- * * * land ist, der|un- ser Hei- * * * land|ist.|||Christ der|Herr,||Christ der|Herr,|
 D2 E2 F3 F | F E (DC/B,/C) C C F | F2 E2 (DC/B,/C) C | C8 | z2 C2 C G F E | G2 G2 G4 | F4 F4 | %25
w: Christ der Herr, der|un- ser Hei- * * * land ist, der|un- ser Hei- * * * land|ist.|Es leuch- tet uns ein|hel- ler Schein,|Christ der|
 F8 | A G F E G G E2 | F6 F2 | E8 | D2 E2 F3 F | F E (DC/B,/C) C C F | F2 E2 (DC/B,/C) C | C8 |] %33
w: Herr,|von Ma- rie der Jung- frau rein,|Christ der|Herr,|Christ der Herr, der|un- ser Hei- * * * land ist, der|un- ser Hei- * * * land|ist.|
V:3
 z8 | z8 | c6 =B2 | (c3 d e4) | z8 | (c2 d4) d2 | (G4 c4) | A2 B2 (c>BA) c | d c (AG) (A>Bc) c | %9
w: ||Christ der|Herr, _ _||Christ _ der|Herr, _|Christ der Herr, _ _ der|un- ser Hei- land ist, _ _ der|
 d d (c>BAG/F/G) G | A8 | F4 c c c c | d2 B2 c4 | f4 d4 | c8 | f e d c d d c2 | A4 B4 | c8 | %18
w: un- ser Hei- * * * * * land|ist.|Hier liegt es in dem|Krip- pe- lein,|Christ der|Herr,|doch ist Gott dies Kin- de- lein,|Christ der|Herr,|
 A2 B2 (c>BA) c | d c A G (A>Bc) c | d d (c>BAG/F/G) G | A8 | z2 A2 A G A c | B2 d2 c4 | A4 B4 | %25
w: Christ der Herr, _ _ der|un- ser Hei- land ist, _ _ der|un- ser Hei- * * * * * land|ist.|Es leuch- tet uns ein|hel- ler Schein,|Christ der|
 A8 | A c A c =B B c2 | (c2 d4) d2 | (G4 c4) | A2 B2 (c>BA) c | d c A G (A>Bc) c | %31
w: Herr,|von Ma- rie der Jung- frau rein,|Christ _ der|Herr, _|Christ der Herr, _ _ der|un- ser Hei- land ist, _ _ der|
 d d (c>BAG/F/G) G | A8 |] %33
w: un- ser Hei- * * * * * land|ist.|
V:4
 z8 | z8 | F,4 G,4 | C,8 | z8 | (F,3 E, D,2) D,2 | C,8 | D,2 G,2 F,3 F, | B,, C, (D,G,) F,3 F, | %9
w: ||Christ der|Herr,||Christ _ _ der|Herr,|Christ der Herr, der|un- ser Hei- land ist, der|
 B,,2 C,2 D,2 C,2 | F,8 | z2 F,2 F, F, E, F, | B,,2 D,2 (C,D, E,2) | F,4 G,4 | C,6 C B, | %15
w: un- ser Hei- land|ist.|Hier liegt es in dem|Krip- pe- lein, _ _|Christ der|Herr, doch ist|
 A, G, F, E, F, G, A,2 | (F,3 E, D,2) D,2 | C,8 | D,2 G,2 F,3 F, | B,, C, D, G, F,3 F, | %20
w: Gott _ _ dies Kin- de- lein,|Christ _ _ der|Herr,|Christ der Herr, der|un- ser Hei- land ist, der|
 B,,2 C,2 D,2 C,2 | F,8 | z2 F,2 F, E, F, A, | G,2 G,2 C,4 | D,4 B,,4 | F,8 | %26
w: un- ser Hei- land|ist.|Es leuch- tet uns ein|hel- ler Schein,|Christ der|Herr,|
 D, E, F, A, G, G, C,2 | (F,3 E, D,2) D,2 | C,8 | D,2 G,2 F,3 F, | B,, C, D, G, F,3 F, | %31
w: von Ma- rie der Jung- frau rein,|Christ _ _ der|Herr,|Christ der Herr, der|un- ser Hei- land ist, der|
 B,,2 C,2 D,2 C,2 | F,8 |] %33
w: un- ser Hei- land|ist.|

